X:1
T:Sleeping Giant Two-Step
L:1/8
M:4/4
I:linebreak $
K:D
V:1 treble
V:1
 Ad |"D" f>g fd A2 F2 |"A7" G>G GF E3 F | G>G GF EEDE |"D" F>G FE FFAd |$
 f>g fd A2 F2 |"A7" G>G GF E3 F |  G>G GA cABc |"D" d2 d>d "D7" ddc=c |$
"G" B2 d2 g3 g |"D" f>g fd AFGF |"A7" E e2 d cABc |"D"   dAFG"D7" Adc=c |$
 "G"B2 d2 g3 g |"D" f>g fd AFGF |"A7" E3 F GABc |"D" d2 d3/2 d d2 :|
